X: 35474
T: Roy Trounce's Doggedness
R: slide
M: 12/8
K: Adorian
A,3 A,CB, A,GE F2D|A,3 A,B,C DB,G, GDB,|
A,3 A,CB, A,GE F2D|1 AGE DEG c2A E2C:|2 AGE DEG c2A A2A||
|:~c2A ~c2A ~c2A ged|~c2A cAc dAG FGA|
~c2A ~c2A ~c2A geg|1 age d^ce ABA A2B:|2 age d^ce ABA AB/c/d||
|:eag edB e2e Aag|edB ~A2G Aag edB|
e2e age edB AGE|Dag edB e2e Aag|
edB ~A2G Aag edB|e2e age edB AGE||

